!!!!SEGMENT: pl-wnifc--13846--114_anonim--piesni-polskie-i-ruskie-ludu-galicyjskiego-114-a-tys-pojichaw.krn
!!!cenid: 18xx:3336
!!!COM: Anonim
!!!COM-rismID: pe30004985
!!!CDT:
!!!CNT:
!!!GTL: Pieśni polskie i ruskie ludu galicyjskiego
!!!OTL: 114. A tyś pojichaw
!!!PDT: 1833
!!!AGN:
!!!SMS-siglum: PL-Wnifc
!!!SMS-shelfmark: 13846
!!!SMS-shelfwork: 114 G
!!!NIFC-rismSourceID: 1001039609
!!!NIFC-rismChildID: 1001039609
!!!NIFC-islandoraID:
!!!URL-pdf-islandora:
!!!URL-scan:
!!!ONB-nifc:
!!!OMD: Andante ma molto sostenuto.
!!!AIN: 1 piano 1 soprn
!!!key: d
**kern	**kern	**kern	**text
*group2	*group2	*group1	*
*part2	*part2	*part1	*part1
*staff3	*staff2	*staff1	*staff1
*I"[Piano]	*I"[Piano]	*I"[Soprano]	*
*Ipiano	*Ipiano	*Isoprn	*
*ICklav	*ICklav	*ICvox	*
*IGacmp	*IGacmp	*IGsolo	*
*clefF4	*clefG2	*clefG2	*
*k[b-]	*k[b-]	*k[b-]	*
*d:	*d:	*d:	*
*M3/4	*M3/4	*M3/4	*
=1-	=1-	=1-	=1-
!LO:TX:t=P:problem=note position	!	!LO:TX:B:b:rj:t=E.160.	!
2.DD/ 2.D/	8a\L 8aa\	8aa\	A
.	8a\J 8aa\	8aa\	tyś
.	4a\ 4aa\	4aa\	po-
.	4f\ 4ff\	4ff\	-ji-
=2	=2	=2	=2
2.DD/;> 2.FF/ 2.D/	2.a\;< 2.aa\	2.aa\;>	-chaw,
=3	=3	=3	=3
!LO:TX:t=P:problem=note position	!	!	!
2.DD/ 2.BB-/ 2.D/	8g\L 8gg\	8gg\	me-
.	8g\J 8gg\	8gg\	-neś
.	4g\ 4gg\	4gg\	po-
.	4d\ 4dd\	4dd\	-ne-
=4	=4	=4	=4
2.DD/;> 2.AA/ 2.D/	2.f\;< 2.ff\	2.ff\;>	-chaw,
!!LO:LB:g=original
=5	=5	=5	=5
!LO:TX:t=P:problem=note position	!	!	!
2.DD/ 2.FF/ 2.AA/ 2.D/	8a\L 8aa\	8aa\	a
.	8a\J 8aa\	8aa\	ja
.	8a\L 8aa\	(>\8aaL	bid-
.	8g\J 8gg\	8gg\J)	.
.	16f\KL 16ff\	16ff\	-na-
.	8.a\J 8.aa\	8.aa\	-ja
=6	=6	=6	=6
2DD/ 2BB-/	2g\ [>2gg\	[>\2gg	pła-
4DD/ 4C#X/	8gL 8gg]	8gg\]	.
.	8a\J 8aa\	8aa\	.
=7	=7	=7	=7
2DD/;> 2AA/ 2D/	2f\;< 2ff\	(2ff'>\	-czu;
.	8qee/	(<8qee/	.
4DD/;> 4AA/ 4D/	4f\;< 4dd\	4dd'>\)	.
!!LO:LB:g=original
=8!|:	=8!|:	=8!|:	=8!|:
*^	*	*	*
4A/	2.D\	8f\L 8ff\	8ff\	spła-
.	.	8f\J 8ff\	8ff\	-ka-
4B-/	.	4g\ 4gg\	4gg\	-łam
4c#X/	.	4a\ 4aa\	4aa\	o-
=9	=9	=9	=9	=9
2.A/ 2.d/	2.D\	(<4..f\ (>4..ff\	(>4..ff\	-czy,
.	.	16f\) 16ee\)	16ee\	.
.	.	4f\ 4dd\	4dd\)	.
*v	*v	*	*	*
=10	=10	=10	=10
4DD/ 4D/	8d/L 8dd/	8dd\	jak
.	8d/J 8dd/	8dd\	wdeń
4DD/ 4D/	4d/ 4dd/	4dd\	tak
4EE/ 4GG/ 4Cn/ 4E/	4c/ 4cc/	4cc\	wno-
!!LO:LB:g=original
=11	=11	=11	=11
*^	*	*	*
2AA/ 2C/ 2F/	2FF\	2c/ 2cc/	2cc\	-czy,
4r	4ryy	8f\ 8ff\	8ff\	szo
.	.	8f\ 8ff\	8ff\	swi-
=12	=12	=12	=12	=12
4D/	4BB-\	4g 4gg	4gg\	-toń-
4C#X/	4AA\	4a\ 4aa\	4aa\	-ka
8.DD/L 8.AA/ 8.D/	4ryy	8.f\L 8.ff\	(>8.ff\	ne-
16DD/Jk 16GG/ 16AA/	.	16c#X\Jk 16cc#X\	16cc#X\)	.
*v	*v	*	*	*
=13	=13	=13	=13
2DD/ 2FF/ 2AA/	2d/ 2dd/	2dd\	-ba-
8DD/ 8FF/ 8AA/	8d/ 8dd/	8dd\	-czu.
8r	8r	8r	.
==	==	==	==
*-	*-	*-	*-
!!!RDF**kern: > = above
!!!RDF**kern: < = below
!!!system-decoration: g1,[{g2}]
!!!ENC: Jędrzej Mróz
!!!END: 2021-11-11
!!!YEC: Copyright 2022 Narodowy Instytut Fryderyka Chopina (https://polishscores.org)
!!!YEM: License CC-BY-4.0 (https://creativecommons.org/licenses/by/4.0)
